X: 099
T: Pritty Kitty
%R: reel
Z: 2014 John Chambers <jc:trillian.mit.edu>
B: Thompson "Twenty four Country Dances for the Year 1762" p.50 #1
F: http://www.vwml.org/browse/browse-collections-dance-tune-books/browse-thompsons1762# 2014-8-11
M: C|
L: 1/8
K: F
|:\
FAcf {f}e2d2 | cdBc A2G2 |\
FAcf e2fa | gfed {d2}c4 :|
|:\
dcBA BGg2 | cBAG AFf2 |\
dcBA Bbag | afce {e2}f4 :|
% - - - - - - - - - - - - - - - - - - - - - - - - -
%%begintext align
%% The First Cu: foot it to the 2d Man & hands round
%% 3 .|. the same to the 2d Wo. :|. first Man turns
%% his Partner with his right hand and cast off .|:
%% turn left hand & cast up again :|: cross over two
%% Cu. .|. lead to the top cast off :|. hands round
%% Six .|: lead out sides :|:
%%endtext
% - - - - - - - - - - - - - - - - - - - - - - - - -
